X: 236
T: Stone of Destiny
C:Maurice Lennon
R:reel
M:4/4
L:1/8
K:G
"G"BddB G2 Bd|d2Bd "Cadd9"edBA|"G"BddB GABd| gedB "D" A3d|
"G"edBA BGGA|BGAG "C"EGG2|"G"DG~G2 DGBe|1"D"dBAB "G"G3A:|2"D"dBAB "G"G3|
d|"G"edBA BGG2|BGAB "Cadd9"EGGd|"G"edBA BGGA|BddB "D"A3d|
"G"edBA BGGA|BGAG "C"EGG2|"G"DG~G2 DGBe|1"D"dBAB "G"G3:|2"D"dBAB "G"G4:|


